X:21029 
T:CLANCY'S FANCY REEL 
B:DMI.0801
Z:Nordberg/Black
N:Single in DMI
R:reel
%Q:1/4=180
M:C|
L:1/8
K:G
dc|BGG2 dBGA|BGBd egdB|cAA2 ecAB|cdef gedc|
BGG2 dGG2|BGBd egdB|cdef gedc|BGAF G2 :|
Bc|dgg2 bgg2|dggf egdB|cAA2 eAA2|cdef gfef|
dgg2 bgg2|dgfg ecdB|cdef gedc|BGAF G2 :|

%%%

